X:1
T:Northumberland, 99.12.10
T:Northumberland, 99.12.10
T:William Howard Doane, 1875
T:Public Domain Courtesy of the Cyber Hymnal™
C:William Howard Doane, 1875
Z:Public Domain
Z:Courtesy of the Cyber Hymnal™
%%score ( 1 2 ) ( 3 4 )
L:1/8
Q:1/4=103
M:2/2
K:G
V:1 treble 
V:2 treble 
V:3 bass 
V:4 bass 
V:1
 [GB]4 [Gc]3 [GB] | [GB]4 [DG]2 z2 | [CE]4 [EG]3 [CE] | [B,D]6 z2 | D4 [CE]2 [CF]2 | %5
 [B,G]4 [DB]2 z2 | [DA]4 [^CB]3 [CA] | [DA]6 z2 | [DA]4 [DG]2 [DA]2 | [DB]3 [DA] [DG]2 z2 | %10
 [GB]4 [FA]2 [GB]2 | [Fc]3 [GB] [FA]2 z2 | [Fd]4 [GB]2 [DG]2 | [EG]3 [CE] [EG]2 z2 | %14
 D4 [DB]3 [CA] | [B,G]6 z2 |] %16
V:2
 x8 | x8 | x8 | x8 | D4 x4 | x8 | x8 | x8 | x8 | x8 | x8 | x8 | x8 | x8 | D4 x4 | x8 |] %16
V:3
 [G,D]4 [G,E]3 [G,D] | [G,D]4 [G,B,]2 z2 | [C,G,]4 [C,C]3 [C,G,] | [G,,G,]6 z2 | %4
 [D,F,]4 [D,G,]2 [D,A,]2 | [G,,G,]4 [G,,G,]2 z2 | [A,,F,]4 [A,,G,]3 [A,,G,] | [D,F,]6 z2 | %8
 F,2 C2 [D,B,]2 [D,F,]2 | G,3 [G,C] [G,B,]2 z2 | [G,D]4 [CD]2 [B,D]2 | [A,D]3 [G,D] [D,D]2 z2 | %12
 [D,D]4 [G,D]2 [B,,G,]2 | [C,G,]3 [C,G,] [C,C]2 z2 | [D,B,]4 [D,G,]3 [D,F,] | [G,,G,]6 z2 |] %16
V:4
 x8 | x8 | x8 | x8 | x8 | x8 | x8 | x8 | D,4 x4 | G,3 x5 | x8 | x8 | x8 | x8 | x8 | x8 |] %16

